X:16382
T:Teneriff. JC.223
M:6/8
L:1/8
Q:110
S:John Clare,Poet,Helpstone (1793-1864)
R:Jig
O:England223
A:Northamptonshire
N:
Z:P Headford
K:C
G"$"|:(G2c)(c2e)|e2gg2e|f2de2c|BcdG2G|!
G2cc2e|e2gg2e|def Bcd|c2ec2:|!
|d|d2BB2G|g2dd2B|c2AB2G|^FAdd2d|!
d2BB2G|g2ee2c|B2GA2^F|GA^F GE^F|c2ec2|]
